Icons/rename_me_app_drawer.svg

<svg viewBox="0 0 48 48"><defs><linearGradient id="linearGradient3764" x1="1" x2="47" gradientUnits="userSpaceOnUse" gradientTransform="translate(-48.000001,0.00221467)"><stop stop-color="#efefef" stop-opacity="1"/><stop offset="1" stop-color="#f9f9f9" stop-opacity="1"/></linearGradient><clipPath id="clipPath-881021384"><g transform="translate(0,-1004.3622)"><rect rx="4" y="1005.36" x="1" height="46" width="46" fill="#1890d0"/></g></clipPath><clipPath id="clipPath-893761818"><g transform="translate(0,-1004.3622)"><rect rx="4" y="1005.36" x="1" height="46" width="46" fill="#1890d0"/></g></clipPath></defs><g><path d="m 1 43 l 0 0.25 c 0 2.216 1.784 4 4 4 l 38 0 c 2.216 0 4 -1.784 4 -4 l 0 -0.25 c 0 2.216 -1.784 4 -4 4 l -38 0 c -2.216 0 -4 -1.784 -4 -4 z m 0 0.5 l 0 0.5 c 0 2.216 1.784 4 4 4 l 38 0 c 2.216 0 4 -1.784 4 -4 l 0 -0.5 c 0 2.216 -1.784 4 -4 4 l -38 0 c -2.216 0 -4 -1.784 -4 -4 z" opacity="0.02"/><path d="m 1 43.25 l 0 0.25 c 0 2.216 1.784 4 4 4 l 38 0 c 2.216 0 4 -1.784 4 -4 l 0 -0.25 c 0 2.216 -1.784 4 -4 4 l -38 0 c -2.216 0 -4 -1.784 -4 -4 z" opacity="0.05"/><path d="m 1 43 l 0 0.25 c 0 2.216 1.784 4 4 4 l 38 0 c 2.216 0 4 -1.784 4 -4 l 0 -0.25 c 0 2.216 -1.784 4 -4 4 l -38 0 c -2.216 0 -4 -1.784 -4 -4 z" opacity="0.1"/></g><g><rect width="46" height="46" x="-47" y="1" rx="4" transform="matrix(0,-1,1,0,0,0)" fill="url(#linearGradient3764)" fill-opacity="1"/></g><g><g clip-path="url(#clipPath-881021384)"><g opacity="0.1"><!-- color: #f9f9f9 --><g><path d="m 12 13 l 6 0 l 0 6 l -6 0 m 0 -6" fill="#000"/><path d="m 21 13 l 6 0 l 0 6 l -6 0 m 0 -6" fill="#000"/><path d="m 30 13 l 6 0 l 0 6 l -6 0 m 0 -6" fill="#000"/><path d="m 12 21 l 6 0 l 0 6 l -6 0 m 0 -6" fill="#000"/><path d="m 21 21 l 6 0 l 0 6 l -6 0 m 0 -6" fill="#000"/><path d="m 30 21 l 6 0 l 0 6 l -6 0 m 0 -6" fill="#000"/><path d="m 12 29 l 6 0 l 0 6 l -6 0 m 0 -6" fill="#000"/><path d="m 21 29 l 6 0 l 0 6 l -6 0 m 0 -6" fill="#000"/><path d="m 30 29 l 6 0 l 0 6 l -6 0 m 0 -6" fill="#000"/></g></g></g></g><g><g clip-path="url(#clipPath-893761818)"><g transform="translate(0,-1)"><!-- color: #f9f9f9 --><g><path d="m 12 13 l 6 0 l 0 6 l -6 0 m 0 -6" fill="#e36a5b"/><path d="m 21 13 l 6 0 l 0 6 l -6 0 m 0 -6" fill="#85a2d6"/><path d="m 30 13 l 6 0 l 0 6 l -6 0 m 0 -6" fill="#85a2d6"/><path d="m 12 21 l 6 0 l 0 6 l -6 0 m 0 -6" fill="#80b869"/><path d="m 21 21 l 6 0 l 0 6 l -6 0 m 0 -6" fill="#e36a5b"/><path d="m 30 21 l 6 0 l 0 6 l -6 0 m 0 -6" fill="#85a2d6"/><path d="m 12 29 l 6 0 l 0 6 l -6 0 m 0 -6" fill="#80b869"/><path d="m 21 29 l 6 0 l 0 6 l -6 0 m 0 -6" fill="#80b869"/><path d="m 30 29 l 6 0 l 0 6 l -6 0 m 0 -6" fill="#e36a5b"/></g></g></g></g><g><g transform="translate(0,-1004.3622)"><path d="m 1 1043.36 0 4 c 0 2.216 1.784 4 4 4 l 38 0 c 2.216 0 4 -1.784 4 -4 l 0 -4 c 0 2.216 -1.784 4 -4 4 l -38 0 c -2.216 0 -4 -1.784 -4 -4 z" opacity="0.1"/></g></g></svg>

<svg viewBox="0 0 48 48" xmlns:xlink="http://www.w3.org/1999/xlink">
 <defs>
  <linearGradient id="0">
   <stop stop-opacity="0"/>
   <stop offset="1"/>
  </linearGradient>
  <linearGradient xlink:href="#0" id="1" gradientUnits="userSpaceOnUse" gradientTransform="translate(4e-7,-48)" y1="47" x2="0" y2="1"/>
  <clipPath id="2">
   <g transform="translate(0,-1004.3622)">
    <rect rx="4" y="1005.36" x="1" height="46" width="46" fill="#1890d0"/>
   </g>
  </clipPath>
  <clipPath id="3">
   <g transform="translate(0,-1004.3622)">
    <rect rx="4" y="1005.36" x="1" height="46" width="46" fill="#1890d0"/>
   </g>
  </clipPath>
 </defs>
 <g>
  <g transform="translate(0,-1004.3622)">
   <path d="m 5,1006.3622 c -2.216,0 -4,1.784 -4,4 l 0,37.25 c 0,2.216 1.784,4 4,4 l 38,0 c 2.216,0 4,-1.784 4,-4 l 0,-37.25 c 0,-2.216 -1.784,-4 -4,-4 l -38,0 z m -4,41.5 0,0.5 c 0,2.216 1.784,4 4,4 l 38,0 c 2.216,0 4,-1.784 4,-4 l 0,-0.5 c 0,2.216 -1.784,4 -4,4 l -38,0 c -2.216,0 -4,-1.784 -4,-4 z" opacity="0.02"/>
   <path d="m 1,1047.6122 0,0.25 c 0,2.216 1.784,4 4,4 l 38,0 c 2.216,0 4,-1.784 4,-4 l 0,-0.25 c 0,2.216 -1.784,4 -4,4 l -38,0 c -2.216,0 -4,-1.784 -4,-4 z" opacity="0.05"/>
   <rect width="46" height="46" x="1" y="1005.61" rx="4" opacity="0.1"/>
  </g>
 </g>
 <g>
  <g transform="translate(0,-1004.3622)">
   <rect rx="4" y="1005.36" x="1" height="46" width="46" fill="#f9f9f9"/>
  </g>
 </g>
 <g>
  <rect transform="scale(1,-1)" width="46" height="46" x="1" y="-46.998" rx="4" opacity="0.1" fill="url(#1)"/>
 </g>
 <g>
  <g clip-path="url(#2)">
   <g opacity="0.1">
    <g>
     <path d="M 12 13 L 18 13 L 18 19 L 12 19 Z M 12 13 "/>
     <path d="M 21 13 L 27 13 L 27 19 L 21 19 Z M 21 13 "/>
     <path d="M 30 13 L 36 13 L 36 19 L 30 19 Z M 30 13 "/>
     <path d="M 12 21 L 18 21 L 18 27 L 12 27 Z M 12 21 "/>
     <path d="M 21 21 L 27 21 L 27 27 L 21 27 Z M 21 21 "/>
     <path d="M 30 21 L 36 21 L 36 27 L 30 27 Z M 30 21 "/>
     <path d="M 12 29 L 18 29 L 18 35 L 12 35 Z M 12 29 "/>
     <path d="M 21 29 L 27 29 L 27 35 L 21 35 Z M 21 29 "/>
     <path d="M 30 29 L 36 29 L 36 35 L 30 35 Z M 30 29 "/>
    </g>
   </g>
  </g>
 </g>
 <g>
  <g clip-path="url(#3)">
   <g transform="translate(0,-1)">
    <g>
     <path d="M 12 13 L 18 13 L 18 19 L 12 19 Z M 12 13 " fill="#e36a5b"/>
     <path d="M 21 13 L 27 13 L 27 19 L 21 19 Z M 21 13 " fill="#85a2d6"/>
     <path d="M 30 13 L 36 13 L 36 19 L 30 19 Z M 30 13 " fill="#85a2d6"/>
     <path d="M 12 21 L 18 21 L 18 27 L 12 27 Z M 12 21 " fill="#80b869"/>
     <path d="M 21 21 L 27 21 L 27 27 L 21 27 Z M 21 21 " fill="#e36a5b"/>
     <path d="M 30 21 L 36 21 L 36 27 L 30 27 Z M 30 21 " fill="#85a2d6"/>
     <path d="M 12 29 L 18 29 L 18 35 L 12 35 Z M 12 29 " fill="#80b869"/>
     <path d="M 21 29 L 27 29 L 27 35 L 21 35 Z M 21 29 " fill="#80b869"/>
     <path d="M 30 29 L 36 29 L 36 35 L 30 35 Z M 30 29 " fill="#e36a5b"/>
    </g>
   </g>
  </g>
 </g>
 <g>
  <g transform="translate(0,-1004.3622)">
   <path d="m 1,1043.3622 0,4 c 0,2.216 1.784,4 4,4 l 38,0 c 2.216,0 4,-1.784 4,-4 l 0,-4 c 0,2.216 -1.784,4 -4,4 l -38,0 c -2.216,0 -4,-1.784 -4,-4 z" opacity="0.1"/>
  </g>
 </g>
</svg>
